flaticon/emoticons/yelling.svg

<svg xmlns="http://www.w3.org/2000/svg" width="32" height="32" viewBox="0 0 24 24">
    <path d="M 23.917969 10.625 C 23.757812 9.949219 23.371094 9.363281 22.886719 9.066406 C 22.5625 8.867188 22.214844 8.800781 21.882812 8.882812 C 21.808594 8.898438 21.734375 8.925781 21.664062 8.960938 C 20.730469 6.6875 19.273438 5.214844 17.773438 4.265625 L 18.316406 3.179688 C 18.414062 2.980469 18.335938 2.742188 18.136719 2.640625 C 17.941406 2.542969 17.699219 2.625 17.601562 2.820312 L 17.082031 3.863281 C 16.832031 3.730469 16.589844 3.613281 16.34375 3.503906 L 16.738281 2.324219 C 16.808594 2.117188 16.695312 1.890625 16.484375 1.820312 C 16.273438 1.75 16.050781 1.863281 15.980469 2.074219 L 15.601562 3.210938 C 15.324219 3.109375 15.054688 3.027344 14.796875 2.953125 L 15.140625 1.925781 C 15.207031 1.714844 15.09375 1.488281 14.886719 1.421875 C 14.675781 1.351562 14.449219 1.464844 14.378906 1.671875 L 14.015625 2.761719 C 13.511719 2.65625 13.078125 2.597656 12.757812 2.566406 L 12.757812 1.800781 C 12.757812 1.578125 12.582031 1.398438 12.359375 1.398438 C 12.136719 1.398438 11.960938 1.578125 11.960938 1.800781 L 11.960938 2.535156 C 11.75 2.546875 11.382812 2.574219 10.90625 2.652344 L 10.753906 1.734375 C 10.71875 1.515625 10.511719 1.367188 10.292969 1.40625 C 10.074219 1.441406 9.929688 1.648438 9.964844 1.867188 L 10.121094 2.800781 C 9.691406 2.898438 9.21875 3.03125 8.71875 3.210938 L 8.339844 2.074219 C 8.269531 1.863281 8.042969 1.75 7.832031 1.820312 C 7.625 1.890625 7.511719 2.117188 7.578125 2.328125 L 7.972656 3.503906 C 7.628906 3.65625 7.277344 3.832031 6.925781 4.035156 L 6.316406 2.820312 C 6.21875 2.625 5.976562 2.542969 5.78125 2.644531 C 5.582031 2.742188 5.503906 2.980469 5.601562 3.179688 L 6.242188 4.460938 C 5.890625 4.699219 5.542969 4.976562 5.203125 5.28125 L 4.242188 4.316406 C 4.085938 4.160156 3.832031 4.160156 3.675781 4.316406 C 3.519531 4.472656 3.519531 4.726562 3.675781 4.882812 L 4.632812 5.839844 C 3.402344 7.148438 2.375 8.972656 1.902344 11.523438 C 1.894531 11.554688 1.890625 11.589844 1.886719 11.621094 C 1.785156 11.59375 1.679688 11.574219 1.574219 11.574219 C 0.691406 11.574219 0 12.527344 0 13.746094 C 0 14.960938 0.691406 15.914062 1.574219 15.914062 C 1.738281 15.914062 1.894531 15.875 2.046875 15.808594 C 2.328125 16.875 2.792969 17.878906 3.429688 18.757812 C 4.726562 20.546875 7.28125 22.671875 12.15625 22.597656 C 12.230469 22.601562 12.304688 22.601562 12.375 22.601562 C 17.09375 22.601562 19.605469 20.519531 20.882812 18.757812 C 22.035156 17.171875 22.621094 15.179688 22.574219 13.128906 C 22.589844 13.128906 22.601562 13.132812 22.617188 13.132812 C 22.707031 13.132812 22.796875 13.125 22.886719 13.101562 C 23.742188 12.898438 24.199219 11.808594 23.917969 10.625 Z M 1.871094 14.996094 C 1.789062 15.0625 1.6875 15.113281 1.574219 15.113281 C 1.207031 15.113281 0.800781 14.550781 0.800781 13.746094 C 0.800781 12.9375 1.207031 12.375 1.574219 12.375 C 1.640625 12.375 1.710938 12.394531 1.777344 12.429688 C 1.757812 12.644531 1.746094 12.855469 1.738281 13.070312 C 1.738281 13.082031 1.738281 13.097656 1.738281 13.109375 C 1.734375 13.289062 1.734375 13.464844 1.738281 13.640625 C 1.742188 13.695312 1.742188 13.75 1.746094 13.804688 C 1.753906 13.949219 1.761719 14.09375 1.773438 14.234375 C 1.78125 14.292969 1.785156 14.347656 1.789062 14.402344 C 1.808594 14.578125 1.832031 14.753906 1.859375 14.925781 C 1.863281 14.949219 1.867188 14.972656 1.871094 14.996094 Z M 20.234375 18.289062 C 18.507812 20.667969 15.796875 21.859375 12.160156 21.800781 L 12.152344 21.800781 C 8.507812 21.847656 5.804688 20.667969 4.078125 18.289062 C 3.253906 17.152344 2.746094 15.785156 2.585938 14.34375 C 2.582031 14.3125 2.582031 14.28125 2.578125 14.25 C 2.558594 14.023438 2.542969 13.792969 2.539062 13.558594 C 2.535156 13.460938 2.539062 13.359375 2.539062 13.257812 C 2.542969 13.09375 2.546875 12.933594 2.558594 12.769531 C 2.566406 12.652344 2.574219 12.535156 2.585938 12.414062 C 2.613281 12.167969 2.640625 11.917969 2.6875 11.667969 C 3.125 9.296875 4.0625 7.605469 5.183594 6.390625 L 5.675781 6.882812 C 5.753906 6.960938 5.855469 7 5.957031 7 C 6.0625 7 6.164062 6.960938 6.242188 6.882812 C 6.398438 6.726562 6.398438 6.472656 6.242188 6.316406 L 5.753906 5.828125 C 6.027344 5.582031 6.304688 5.355469 6.589844 5.15625 L 6.800781 5.578125 C 6.871094 5.71875 7.011719 5.800781 7.160156 5.800781 C 7.21875 5.800781 7.28125 5.785156 7.339844 5.757812 C 7.535156 5.660156 7.617188 5.417969 7.515625 5.222656 L 7.265625 4.722656 C 7.585938 4.535156 7.902344 4.375 8.214844 4.234375 L 8.378906 4.726562 C 8.433594 4.894531 8.589844 5 8.757812 5 C 8.800781 5 8.84375 4.996094 8.886719 4.980469 C 9.09375 4.910156 9.207031 4.683594 9.136719 4.472656 L 8.957031 3.9375 C 9.417969 3.773438 9.851562 3.65625 10.246094 3.566406 L 10.363281 4.265625 C 10.398438 4.460938 10.566406 4.601562 10.757812 4.601562 C 10.78125 4.601562 10.800781 4.597656 10.824219 4.59375 C 11.042969 4.558594 11.1875 4.351562 11.152344 4.136719 L 11.035156 3.421875 C 11.445312 3.363281 11.765625 3.34375 11.960938 3.335938 L 11.960938 4.199219 C 11.960938 4.421875 12.136719 4.601562 12.359375 4.601562 C 12.582031 4.601562 12.757812 4.421875 12.757812 4.199219 L 12.757812 3.371094 C 13.027344 3.394531 13.367188 3.441406 13.765625 3.519531 L 13.578125 4.074219 C 13.507812 4.28125 13.621094 4.511719 13.832031 4.578125 C 13.875 4.59375 13.917969 4.601562 13.957031 4.601562 C 14.125 4.601562 14.28125 4.496094 14.339844 4.328125 L 14.546875 3.703125 C 14.804688 3.769531 15.074219 3.855469 15.351562 3.953125 L 15.179688 4.472656 C 15.109375 4.683594 15.222656 4.910156 15.433594 4.980469 C 15.472656 4.992188 15.515625 5 15.558594 5 C 15.726562 5 15.882812 4.894531 15.9375 4.726562 L 16.097656 4.253906 C 16.167969 4.285156 16.238281 4.3125 16.308594 4.347656 C 16.453125 4.417969 16.589844 4.488281 16.730469 4.5625 L 16.402344 5.222656 C 16.300781 5.417969 16.382812 5.660156 16.578125 5.757812 C 16.636719 5.785156 16.699219 5.800781 16.757812 5.800781 C 16.90625 5.800781 17.046875 5.71875 17.117188 5.578125 L 17.421875 4.96875 C 19.089844 6.042969 20.300781 7.574219 21.035156 9.539062 L 21.035156 9.542969 L 21.109375 9.746094 C 21.21875 10.050781 21.3125 10.355469 21.394531 10.667969 C 21.402344 10.6875 21.40625 10.710938 21.414062 10.730469 C 21.492188 11.039062 21.5625 11.347656 21.621094 11.667969 C 21.671875 11.933594 21.707031 12.203125 21.730469 12.46875 C 21.734375 12.515625 21.742188 12.558594 21.746094 12.605469 C 21.917969 14.671875 21.386719 16.703125 20.234375 18.289062 Z M 22.699219 12.324219 C 22.644531 12.335938 22.585938 12.335938 22.523438 12.324219 C 22.523438 12.308594 22.519531 12.292969 22.519531 12.277344 C 22.492188 12.027344 22.457031 11.773438 22.410156 11.523438 C 22.355469 11.214844 22.285156 10.917969 22.214844 10.632812 C 22.207031 10.597656 22.195312 10.5625 22.1875 10.53125 C 22.113281 10.257812 22.035156 9.992188 21.953125 9.738281 C 21.949219 9.730469 21.949219 9.722656 21.945312 9.714844 C 21.984375 9.6875 22.027344 9.667969 22.070312 9.660156 C 22.222656 9.621094 22.371094 9.6875 22.46875 9.746094 C 22.769531 9.933594 23.027344 10.339844 23.140625 10.8125 C 23.324219 11.597656 23.054688 12.238281 22.699219 12.324219 Z M 22.699219 12.324219"/>
    <path d="M13.476562 15.367188C10.894531 15.367188 8.800781 17.5625 8.800781 19 8.800781 19.320312 8.902344 19.558594 9.109375 19.707031 9.5 19.992188 10.066406 19.808594 10.847656 19.554688 11.582031 19.316406 12.492188 19.019531 13.476562 19.019531 14.464844 19.019531 15.375 19.316406 16.109375 19.554688 16.609375 19.71875 17.019531 19.851562 17.355469 19.851562 17.542969 19.851562 17.707031 19.808594 17.847656 19.707031 18.050781 19.558594 18.15625 19.320312 18.15625 19 18.15625 17.5625 16.058594 15.367188 13.476562 15.367188zM15.207031 16.566406C15.132812 16.695312 14.519531 17 13.398438 17 12.351562 17 11.753906 16.734375 11.625 16.621094 12.171875 16.347656 12.800781 16.167969 13.476562 16.167969 14.105469 16.167969 14.6875 16.324219 15.207031 16.566406zM17.355469 19.054688C17.164062 19.054688 16.703125 18.90625 16.355469 18.792969 15.609375 18.550781 14.589844 18.21875 13.476562 18.21875 12.367188 18.21875 11.34375 18.550781 10.601562 18.792969 10.25 18.90625 9.777344 19.050781 9.601562 19.054688 9.601562 19.039062 9.597656 19.023438 9.597656 19 9.597656 18.476562 10.117188 17.660156 10.953125 17.039062 11.335938 17.558594 12.398438 17.800781 13.398438 17.800781 14.449219 17.800781 15.5625 17.535156 15.894531 16.964844 16.792969 17.59375 17.355469 18.453125 17.355469 19 17.355469 19.023438 17.355469 19.039062 17.355469 19.054688zM14.800781 7.398438C13.359375 7.398438 12.121094 8.25 11.542969 9.472656 11.042969 8.707031 10.179688 8.199219 9.199219 8.199219 7.65625 8.199219 6.398438 9.457031 6.398438 11 6.398438 12.542969 7.65625 13.800781 9.199219 13.800781 10.179688 13.800781 11.042969 13.292969 11.542969 12.527344 12.121094 13.75 13.359375 14.597656 14.800781 14.597656 16.785156 14.597656 18.398438 12.984375 18.398438 11 18.398438 9.015625 16.785156 7.398438 14.800781 7.398438zM14.800781 8.199219C15.472656 8.199219 16.089844 8.4375 16.570312 8.832031L12.011719 10.789062C12.117188 9.34375 13.328125 8.199219 14.800781 8.199219zM9.199219 9C10.242188 9 11.089844 9.804688 11.179688 10.820312L7.785156 9.585938C8.148438 9.222656 8.648438 9 9.199219 9zM9.199219 13C8.097656 13 7.199219 12.101562 7.199219 11 7.199219 10.742188 7.253906 10.5 7.339844 10.277344L11.085938 11.636719C10.816406 12.425781 10.078125 13 9.199219 13zM14.800781 13.800781C13.472656 13.800781 12.363281 12.871094 12.074219 11.632812L17.136719 9.460938C17.429688 9.902344 17.597656 10.429688 17.597656 11 17.597656 12.542969 16.34375 13.800781 14.800781 13.800781zM14.800781 13.800781"/>
    <path d="M10 11.800781C10 12.019531 9.820312 12.199219 9.597656 12.199219 9.378906 12.199219 9.199219 12.019531 9.199219 11.800781 9.199219 11.578125 9.378906 11.398438 9.597656 11.398438 9.820312 11.398438 10 11.578125 10 11.800781zM14.398438 12C14.398438 12.332031 14.128906 12.597656 13.800781 12.597656 13.46875 12.597656 13.199219 12.332031 13.199219 12 13.199219 11.667969 13.46875 11.398438 13.800781 11.398438 14.128906 11.398438 14.398438 11.667969 14.398438 12zM14.398438 12"/>
</svg>

<svg xmlns="http://www.w3.org/2000/svg" width="32" height="32" viewBox="0 0 24 24">
    <path d="M23.918 10.625c-.16-.676-.547-1.262-1.031-1.559-.325-.199-.672-.265-1.004-.183a.916.916 0 0 0-.219.078c-.934-2.274-2.39-3.746-3.89-4.695l.542-1.086a.403.403 0 0 0-.18-.54.402.402 0 0 0-.534.18l-.52 1.043c-.25-.133-.492-.25-.738-.36l.394-1.179a.398.398 0 0 0-.254-.504.396.396 0 0 0-.504.254l-.378 1.137a11.849 11.849 0 0 0-.805-.258l.344-1.027a.401.401 0 0 0-.762-.254l-.363 1.09a11.811 11.811 0 0 0-1.258-.196v-.765a.398.398 0 1 0-.797 0v.734c-.211.012-.578.04-1.055.117l-.152-.918a.396.396 0 0 0-.461-.328.4.4 0 0 0-.328.461l.156.934c-.43.097-.902.23-1.402.41l-.38-1.137a.4.4 0 1 0-.76.254l.394 1.176c-.344.152-.696.328-1.047.531l-.61-1.215a.397.397 0 0 0-.535-.175.397.397 0 0 0-.18.535l.641 1.28c-.351.24-.699.517-1.039.821l-.96-.965a.4.4 0 0 0-.567.567l.957.957c-1.23 1.308-2.258 3.133-2.73 5.683-.008.032-.012.067-.016.098a1.21 1.21 0 0 0-.313-.047c-.883 0-1.574.953-1.574 2.172 0 1.215.691 2.168 1.574 2.168.164 0 .32-.039.473-.105a8.885 8.885 0 0 0 1.383 2.949c1.297 1.789 3.851 3.914 8.726 3.84.074.004.149.004.219.004 4.719 0 7.23-2.082 8.508-3.844 1.152-1.586 1.738-3.578 1.691-5.63.016 0 .028.005.043.005.09 0 .18-.008.27-.031.855-.204 1.312-1.293 1.031-2.477zM1.871 14.996a.477.477 0 0 1-.297.117c-.367 0-.773-.562-.773-1.367 0-.809.406-1.371.773-1.371a.44.44 0 0 1 .203.055c-.02.215-.03.425-.039.64v.04c-.004.18-.004.355 0 .53.004.055.004.11.008.165a14.9 14.9 0 0 0 .043.597c.02.176.043.352.07.524l.012.07zm18.363 3.293c-1.726 2.379-4.437 3.57-8.074 3.512h-.008c-3.644.047-6.347-1.133-8.074-3.512-.824-1.137-1.332-2.504-1.492-3.945-.004-.031-.004-.063-.008-.094a9.969 9.969 0 0 1-.039-.691c-.004-.098 0-.2 0-.301a10.2 10.2 0 0 1 .047-.844c.027-.246.055-.496.102-.746.437-2.371 1.374-4.063 2.496-5.277l.492.492a.399.399 0 0 0 .566 0 .4.4 0 0 0 0-.567l-.488-.488c.273-.246.55-.473.836-.672l.21.422a.4.4 0 0 0 .54.18.397.397 0 0 0 .176-.535l-.25-.5a9.97 9.97 0 0 1 .949-.489l.164.493c.055.168.21.273.379.273a.37.37 0 0 0 .129-.02.402.402 0 0 0 .25-.507l-.18-.535c.461-.165.895-.282 1.29-.372l.116.7a.405.405 0 0 0 .395.336c.023 0 .043-.004.066-.008a.398.398 0 0 0 .328-.457l-.117-.715c.41-.059.73-.078.926-.086v.863a.398.398 0 1 0 .797 0v-.828c.27.024.61.07 1.008.149l-.188.554a.396.396 0 0 0 .254.504.37.37 0 0 0 .125.024.406.406 0 0 0 .383-.274l.207-.625c.258.067.527.152.805.25l-.172.52a.4.4 0 0 0 .379.527.397.397 0 0 0 .379-.273l.16-.473c.07.031.14.059.21.094.145.07.282.14.422.215l-.328.66a.397.397 0 0 0 .356.578.4.4 0 0 0 .36-.223l.304-.61C19.09 6.044 20.3 7.575 21.035 9.54v.004l.074.203c.11.305.203.61.286.922.007.02.011.043.02.062.077.31.148.618.206.938.05.266.086.535.11.8.003.048.011.09.015.137.172 2.067-.36 4.098-1.512 5.684zm2.465-5.965a.443.443 0 0 1-.176 0c0-.015-.003-.031-.003-.047-.028-.25-.063-.504-.11-.754a13.663 13.663 0 0 0-.195-.89c-.008-.035-.02-.07-.027-.102-.075-.273-.153-.539-.235-.793-.004-.008-.004-.015-.008-.023a.322.322 0 0 1 .125-.055c.153-.039.301.027.399.086.3.188.558.594.672 1.066.183.786-.086 1.426-.442 1.512zm0 0"/>
    <path d="M13.477 15.367C10.895 15.367 8.8 17.562 8.8 19c0 .32.101.559.308.707.391.285.957.102 1.739-.152.734-.239 1.644-.535 2.629-.535.988 0 1.898.296 2.632.535.5.164.91.297 1.246.297a.813.813 0 0 0 .493-.145c.203-.148.308-.387.308-.707 0-1.438-2.097-3.633-4.68-3.633zm1.73 1.2c-.074.128-.687.433-1.809.433-1.046 0-1.644-.266-1.773-.379a4.142 4.142 0 0 1 1.852-.453c.628 0 1.21.156 1.73.398zm2.148 2.488c-.19 0-.652-.149-1-.262-.746-.242-1.765-.574-2.878-.574-1.11 0-2.133.332-2.875.574-.352.113-.825.258-1 .262 0-.016-.004-.032-.004-.055 0-.523.52-1.34 1.355-1.96.383.519 1.445.76 2.445.76 1.051 0 2.165-.265 2.497-.835.898.629 1.46 1.488 1.46 2.035v.055zm0 0M14.8 7.398c-1.44 0-2.679.852-3.257 2.075a2.797 2.797 0 0 0-2.344-1.274A2.806 2.806 0 0 0 6.4 11c0 1.543 1.257 2.8 2.8 2.8.98 0 1.844-.507 2.344-1.273a3.602 3.602 0 0 0 3.258 2.07A3.6 3.6 0 0 0 18.398 11a3.604 3.604 0 0 0-3.597-3.602zm0 .801c.673 0 1.29.239 1.77.633l-4.558 1.957A2.8 2.8 0 0 1 14.8 8.2zM9.2 9c1.042 0 1.89.805 1.98 1.82L7.785 9.586A1.993 1.993 0 0 1 9.2 9zm0 4c-1.102 0-2-.898-2-2a2 2 0 0 1 .14-.723l3.746 1.36A2 2 0 0 1 9.199 13zm5.6.8a2.806 2.806 0 0 1-2.726-2.167l5.063-2.172A2.802 2.802 0 0 1 14.8 13.8zm0 0"/>
    <path d="M10 11.8a.401.401 0 1 1-.802-.004.401.401 0 0 1 .802.005zm0 0M14.398 12a.598.598 0 1 1-.598-.602c.329 0 .598.27.598.602zm0 0"/>
</svg>
